X: 42777
T: White Stone, The
R: jig
M: 6/8
K: Gmajor
D|:DGG BGG|dBe dBG|DGB DGB|DGB AGE|
DGG BGG|dBe dBd|gfe edB|dBA G2:|
A|:B2d dBd|gfe edB|G2B BAG|
[1 AGE EDG|B2d dBd|gfe edB|DGB DGB|AGE G2:|
[2 AGE E2D|DGB DGB|DGB AGE|gfe edB|dBA G3||

